images/decorative/skills/jest-icon.svg

<svg width="512" height="512" fill="none" xmlns="http://www.w3.org/2000/svg"><path d="M458.573 252.088c0-26.32-21.336-47.656-47.658-47.656-1.692 0-3.362.09-5.008.263l65.456-193.057H193.196l65.365 192.889a47.91 47.91 0 0 0-2.896-.095c-26.32 0-47.657 21.336-47.657 47.656 0 21.275 13.943 39.286 33.186 45.414-10.164 17.606-22.953 33.462-37.473 47.162-19.744 18.626-42.34 32.749-66.781 41.453-29.097-14.948-42.838-48.191-30.439-77.34 1.399-3.291 2.83-6.627 4.195-9.949 21.081-4.92 36.788-23.818 36.788-46.398 0-26.32-21.336-47.656-47.657-47.656-26.32 0-47.657 21.336-47.657 47.656 0 16.14 8.03 30.396 20.306 39.017-11.796 26.857-29.135 54.964-34.537 87.54-6.473 39.041-.02 80.481 33.745 103.885 78.638 54.502 163.999-33.788 254-55.982 32.618-8.044 68.422-6.748 97.16-23.392 21.58-12.499 35.807-33.213 39.845-56.468 3.988-22.974-1.827-45.848-15.2-64.395 6.917-8.272 11.084-18.921 11.084-30.547Z" fill="#99425B"/><path d="M451.221 345.038c-3.505 20.19-15.975 37.826-34.211 48.388-17 9.846-37.371 12.785-58.938 15.895-11.555 1.666-23.503 3.39-35.175 6.268-30.861 7.61-60.754 22.458-89.661 36.816-57.851 28.736-107.812 53.548-154.921 20.9-34.507-23.917-32.914-68.166-28.893-92.414 3.725-22.465 13.798-43.154 23.539-63.163 1.683-3.46 3.332-6.855 4.937-10.221a58.848 58.848 0 0 0 15.317 3.843c-9.916 32.724 5.677 68.306 38.407 85.12l4.479 2.301 4.744-1.689c25.874-9.214 49.716-24.001 70.864-43.953 13.669-12.897 25.423-27.164 35.082-42.409 2.896.436 5.858.665 8.874.665 30.039 0 54.914-22.457 58.764-51.461a527.21 527.21 0 0 1 37.723-.004c3.847 29.006 28.723 51.465 58.763 51.465 12.56 0 24.211-3.936 33.809-10.623 6.664 13.64 9.151 28.988 6.497 44.276ZM99.827 216.413c19.861 0 36.018 16.158 36.018 36.018a35.793 35.793 0 0 1-5.687 19.388c-5.989 9.337-16.163 15.737-27.857 16.536a36.83 36.83 0 0 1-2.474.094c-4.425 0-8.666-.808-12.586-2.273-7.93-2.968-14.537-8.658-18.694-15.923a35.783 35.783 0 0 1-4.738-17.822c0-19.86 16.158-36.018 36.018-36.018Zm119.82 35.676c0-18.045 13.339-33.028 30.672-35.619a35.986 35.986 0 0 1 5.346-.399c11.546 0 21.826 5.47 28.42 13.946a36.017 36.017 0 0 1 4.204 6.83 35.793 35.793 0 0 1 3.394 15.242c0 2.879-.349 5.678-.991 8.364-3.51 14.694-16.04 25.925-31.393 27.471-1.194.12-2.407.183-3.634.183a35.8 35.8 0 0 1-19.52-5.772c-9.917-6.424-16.498-17.578-16.498-30.246Zm150.326-42.83c-7.716 7.383-13.454 16.816-16.312 27.423a552.359 552.359 0 0 0-40.741 0c-3.046-11.306-9.364-21.279-17.862-28.856l37.27-75.361 37.645 76.794ZM209.43 23.279h245.696l-58.03 171.152a58.844 58.844 0 0 0-7.35 2.278L332.42 79.766 274.932 196.01a59.114 59.114 0 0 0-7.667-2.067L209.43 23.279Zm237.503 228.81c0 3.611-.54 7.097-1.533 10.389-2.365 7.831-7.328 14.541-13.882 19.129a35.812 35.812 0 0 1-20.603 6.5c-16.63 0-30.659-11.334-34.783-26.681a35.964 35.964 0 0 1 1.557-23.232 35.956 35.956 0 0 1 3.405-6.246c6.482-9.566 17.421-15.877 29.821-15.877 1.138 0 2.26.059 3.37.163 18.287 1.704 32.648 17.13 32.648 35.855Zm23.279 0c0-28.95-20.858-53.104-48.33-58.265L487.599 0H176.962l65.817 194.219c-26.519 5.901-46.411 29.599-46.411 57.87 0 21.227 11.219 39.875 28.033 50.353-8.087 12.049-17.678 23.387-28.667 33.755-17.43 16.443-36.847 28.912-57.78 37.117-21.085-13.245-29.998-38.222-20.741-59.981l.725-1.706c.454-1.065.908-2.132 1.36-3.199 23.159-8.078 39.826-30.121 39.826-55.997 0-32.697-26.601-59.297-59.297-59.297s-59.297 26.6-59.297 59.297c0 16.503 6.784 31.448 17.701 42.209-1.978 4.217-4.062 8.506-6.2 12.897-9.982 20.503-21.295 43.741-25.574 69.545-8.498 51.249 5.21 92.216 38.597 115.356C85.314 506.479 105.89 512 126.594 512c38.987 0 78.425-19.587 116.998-38.746 27.779-13.797 56.505-28.066 84.879-35.064 10.557-2.603 21.422-4.17 32.924-5.829 22.807-3.29 46.392-6.691 67.282-18.79 24.216-14.027 40.792-37.555 45.48-64.55 4.023-23.175-.819-46.387-12.629-66.072a58.94 58.94 0 0 0 8.684-30.86Z" fill="#fff"/></svg>

<svg width="512" height="512" viewBox="0 0 512 512" fill="none" xmlns="http://www.w3.org/2000/svg">
<path d="M458.573 252.088C458.573 225.768 437.237 204.432 410.915 204.432C409.223 204.432 407.553 204.522 405.907 204.695L471.363 11.6384H193.196L258.561 204.527C257.602 204.469 256.638 204.432 255.665 204.432C229.345 204.432 208.008 225.768 208.008 252.088C208.008 273.363 221.951 291.374 241.194 297.502C231.03 315.108 218.241 330.964 203.721 344.664C183.977 363.29 161.381 377.413 136.94 386.117C107.843 371.169 94.1016 337.926 106.501 308.777C107.9 305.486 109.331 302.15 110.696 298.828C131.777 293.908 147.484 275.01 147.484 252.43C147.484 226.11 126.148 204.774 99.827 204.774C73.5069 204.774 52.1697 226.11 52.1697 252.43C52.1697 268.57 60.2008 282.826 72.4757 291.447C60.6804 318.304 43.3412 346.411 37.9394 378.987C31.4656 418.028 37.9184 459.468 71.6842 482.872C150.322 537.374 235.683 449.084 325.684 426.89C358.302 418.846 394.106 420.142 422.844 403.498C444.424 390.999 458.651 370.285 462.689 347.03C466.677 324.056 460.862 301.182 447.489 282.635C454.406 274.363 458.573 263.714 458.573 252.088Z" fill="#99425B"/>
<path d="M451.221 345.038C447.716 365.228 435.246 382.864 417.01 393.426C400.01 403.272 379.639 406.211 358.072 409.321C346.517 410.987 334.569 412.711 322.897 415.589C292.036 423.199 262.143 438.047 233.236 452.405C175.385 481.141 125.424 505.953 78.315 473.305C43.8078 449.388 45.4013 405.139 49.4215 380.891C53.1472 358.426 63.2199 337.737 72.9609 317.728C74.644 314.268 76.2933 310.873 77.8983 307.507C82.7263 309.436 87.8616 310.752 93.2146 311.35C83.299 344.074 98.8922 379.656 131.622 396.47L136.101 398.771L140.845 397.082C166.719 387.868 190.561 373.081 211.709 353.129C225.378 340.232 237.132 325.965 246.791 310.72C249.687 311.156 252.649 311.385 255.665 311.385C285.704 311.385 310.579 288.928 314.429 259.924C326.724 259.474 339.785 259.47 352.152 259.92C355.999 288.926 380.875 311.385 410.915 311.385C423.475 311.385 435.126 307.449 444.724 300.762C451.388 314.402 453.875 329.75 451.221 345.038ZM99.8269 216.413C119.688 216.413 135.845 232.571 135.845 252.431C135.845 259.565 133.752 266.216 130.158 271.819C124.169 281.156 113.995 287.556 102.301 288.355C101.483 288.41 100.659 288.449 99.8269 288.449C95.4016 288.449 91.1614 287.641 87.2412 286.176C79.3114 283.208 72.7037 277.518 68.5473 270.253C65.5385 264.993 63.8089 258.912 63.8089 252.431C63.8089 232.571 79.9666 216.413 99.8269 216.413ZM219.647 252.089C219.647 234.044 232.986 219.061 250.319 216.47C252.064 216.208 253.849 216.071 255.665 216.071C267.211 216.071 277.491 221.541 284.085 230.017C285.724 232.122 287.145 234.407 288.289 236.847C290.462 241.479 291.683 246.643 291.683 252.089C291.683 254.968 291.334 257.767 290.692 260.453C287.182 275.147 274.652 286.378 259.299 287.924C258.105 288.044 256.892 288.107 255.665 288.107C248.474 288.107 241.775 285.98 236.145 282.335C226.228 275.911 219.647 264.757 219.647 252.089ZM369.973 209.259C362.257 216.642 356.519 226.075 353.661 236.682C340.324 236.181 326.181 236.181 312.92 236.682C309.874 225.376 303.556 215.403 295.058 207.826L332.328 132.465L369.973 209.259ZM209.43 23.2787H455.126L397.096 194.431C394.581 195.035 392.127 195.795 389.746 196.709L332.42 79.7657L274.932 196.01C272.447 195.155 269.886 194.466 267.265 193.943L209.43 23.2787ZM446.933 252.089C446.933 255.7 446.393 259.186 445.4 262.478C443.035 270.309 438.072 277.019 431.518 281.607C425.675 285.697 418.573 288.107 410.915 288.107C394.285 288.107 380.256 276.773 376.132 261.426C375.332 258.446 374.897 255.317 374.897 252.089C374.897 247.165 375.893 242.471 377.689 238.194C378.614 235.989 379.768 233.906 381.094 231.948C387.576 222.382 398.515 216.071 410.915 216.071C412.053 216.071 413.175 216.13 414.285 216.234C432.572 217.938 446.933 233.364 446.933 252.089ZM470.212 252.089C470.212 223.139 449.354 198.985 421.882 193.824L487.599 0H176.962L242.779 194.219C216.26 200.12 196.368 223.818 196.368 252.089C196.368 273.316 207.587 291.964 224.401 302.442C216.314 314.491 206.723 325.829 195.734 336.197C178.304 352.64 158.887 365.109 137.954 373.314C116.869 360.069 107.956 335.092 117.213 313.333L117.938 311.627C118.392 310.562 118.846 309.495 119.298 308.428C142.457 300.35 159.124 278.307 159.124 252.431C159.124 219.734 132.523 193.134 99.8269 193.134C67.1308 193.134 40.5302 219.734 40.5302 252.431C40.5302 268.934 47.3136 283.879 58.2313 294.64C56.2526 298.857 54.1692 303.146 52.031 307.537C42.0491 328.04 30.7357 351.278 26.457 377.082C17.9592 428.331 31.6668 469.298 65.0543 492.438C85.3149 506.479 105.889 512 126.594 512C165.581 512 205.019 492.413 243.592 473.254C271.371 459.457 300.097 445.188 328.471 438.19C339.028 435.587 349.893 434.02 361.395 432.361C384.202 429.071 407.787 425.67 428.677 413.571C452.893 399.544 469.469 376.016 474.157 349.021C478.18 325.846 473.338 302.634 461.528 282.949C467.033 273.953 470.212 263.386 470.212 252.089Z" fill="white"/>
</svg>
